X:85
T: Cape John Waltz
M:3/4
R:waltz
L:1/8
C:Lloyd Tattrie
Z:added by Alf warnock alf0@rogers.com - http://members.rogers.com/alf0
K:G
D GA|"G"B3d BA|G2 D2 B,2| "C"C3D EG|"G"D2 B,2 G,2|
"C"C2 E2 G2| "G"DG3 B2| "Am"(3cdc B2 G2| "D7"A4 D2|
"G"B3d BA|G2 D2 B,2| "C"C3D EG|"G"D2 B,2 G,2|
"C"C2 E2 G2| "G"DG3 B2| "D7"(3cdc A2 F2| "G"G4 D2|
"G"B3d BA|G2 B2 d2| "C"g2 e2 g2| "G"d2 B2 G2|
"C"c2 e2 g2| "G"d2 B2 d2| "Am"e2 d2 B2| "D7"A4 D2|
"G"B3d BA|G2 B2 d2| "C"g2 e2 g2| "G"d2 B2 G2|
"C"c2 e2 g2| "G"d2 B2 dB|"D7"(3cdc A2 F2| "G"G4 D2|
